svg/business/coin_3_line.svg

<?xml version="1.0" encoding="UTF-8"?>
<svg width="24px" height="24px" viewBox="0 0 24 24" version="1.1" xmlns="http://www.w3.org/2000/svg" xmlns:xlink="http://www.w3.org/1999/xlink">
    <title>coin_3_line</title>
    <g id="Icon" stroke="none" stroke-width="1" fill="none" fill-rule="evenodd">
        <g id="Business" transform="translate(-241.000000, -480.000000)">
            <g id="coin_3_line" transform="translate(241.000000, 480.000000)">
                <path d="M24,0 L24,24 L0,24 L0,0 L24,0 Z M12.5935,23.2578 L12.5819,23.2595 L12.5109,23.295 L12.4919,23.2987 L12.4767,23.295 L12.4057,23.2595 C12.3958,23.2564 12.387,23.259 12.3821,23.2649 L12.378,23.2758 L12.3609,23.7031 L12.3659,23.7235 L12.3769,23.7357 L12.4805,23.8097 L12.4953,23.8136 L12.5071,23.8097 L12.6107,23.7357 L12.6233,23.7197 L12.6267,23.7031 L12.6096,23.2758 C12.6076,23.2657 12.601,23.2593 12.5935,23.2578 Z M12.8584,23.1453 L12.8445,23.1473 L12.6598,23.2397 L12.6499,23.2499 L12.6472,23.2611 L12.6651,23.6906 L12.6699,23.7034 L12.6784,23.7105 L12.8793,23.8032 C12.8914,23.8069 12.9022,23.803 12.9078,23.7952 L12.9118,23.7812 L12.8777,23.1665 C12.8753,23.1546 12.8674,23.147 12.8584,23.1453 Z M12.143,23.1473 C12.1332,23.1424 12.1222,23.1453 12.1156,23.1526 L12.1099,23.1665 L12.0758,23.7812 C12.0751,23.7927 12.0828,23.8019 12.0926,23.8046 L12.1083,23.8032 L12.3092,23.7105 L12.3186,23.7024 L12.3225,23.6906 L12.3404,23.2611 L12.3372,23.2485 L12.3278,23.2397 L12.143,23.1473 Z" id="MingCute" fill-rule="nonzero"></path>
                <path d="M12,2 C17.5228,2 22,6.47715 22,12 C22,17.5228 17.5228,22 12,22 C6.47715,22 2,17.5228 2,12 C2,6.47715 6.47715,2 12,2 Z M4.07108,13.0711 C4.54762,16.6326 7.36744,19.4524 10.9289,19.9289 C10.4524,16.3674 7.63256,13.5476 4.07108,13.0711 Z M19.9289,13.0711 C16.3674,13.5476 13.5476,16.3674 13.0711,19.9289 C16.6326,19.4524 19.4524,16.6326 19.9289,13.0711 Z M12,7.36412 C11.0199,9.38153 9.38153,11.0199 7.36412,12 C9.38153,12.9801 11.0199,14.6185 12,16.6359 C12.9801,14.6185 14.6185,12.9801 16.6359,12 C14.6185,11.0199 12.9801,9.38154 12,7.36412 Z M10.9289,4.07108 C7.36744,4.54762 4.54762,7.36744 4.07108,10.9289 C7.63256,10.4524 10.4524,7.63256 10.9289,4.07108 Z M13.0711,4.07108 C13.5476,7.63256 16.3674,10.4524 19.9289,10.9289 C19.4524,7.36744 16.6326,4.54762 13.0711,4.07108 Z" id="形状" fill="#09244B"></path>
            </g>
        </g>
    </g>
</svg>

<svg xmlns="http://www.w3.org/2000/svg" width="24" height="24"><g fill="none" fill-rule="evenodd"><path d="M24 0v24H0V0zM12.594 23.258l-.012.002-.071.035-.02.004-.014-.004-.071-.036c-.01-.003-.019 0-.024.006l-.004.01-.017.428.005.02.01.013.104.074.015.004.012-.004.104-.074.012-.016.004-.017-.017-.427c-.002-.01-.009-.017-.016-.018m.264-.113-.014.002-.184.093-.01.01-.003.011.018.43.005.012.008.008.201.092c.012.004.023 0 .029-.008l.004-.014-.034-.614c-.003-.012-.01-.02-.02-.022m-.715.002a.023.023 0 0 0-.027.006l-.006.014-.034.614c0 .012.007.02.017.024l.015-.002.201-.093.01-.008.003-.011.018-.43-.003-.012-.01-.01z"/><path fill="#09244B" d="M12 2c5.523 0 10 4.477 10 10s-4.477 10-10 10S2 17.523 2 12 6.477 2 12 2M4.071 13.071a8.004 8.004 0 0 0 6.858 6.858A8.004 8.004 0 0 0 4.07 13.07m15.858 0a8.004 8.004 0 0 0-6.858 6.858 8.004 8.004 0 0 0 6.858-6.858M12 7.364A10.042 10.042 0 0 1 7.364 12 10.042 10.042 0 0 1 12 16.636 10.042 10.042 0 0 1 16.636 12 10.042 10.042 0 0 1 12 7.364m-1.071-3.293A8.005 8.005 0 0 0 4.07 10.93 8.004 8.004 0 0 0 10.93 4.07m2.142 0a8.004 8.004 0 0 0 6.858 6.858A8.004 8.004 0 0 0 13.07 4.07"/></g></svg>
